X:1
T:Abendlied
T:Johann Gottlieb Naumann
T:Abendlied
T:CPDL - Creative Commons Attribution Non Commercial 3.0
C:Johann Gottlieb Naumann
Z:CPDL - Creative Commons Attribution Non Commercial 3.0
%%score [ ( 1 2 ) ( 3 4 ) ]
L:1/8
Q:1/4=60
M:2/4
K:Eb
V:1 treble nm="Sopran\nAlt"
V:2 treble 
V:3 bass nm="Tenor\nBass"
V:4 bass 
V:1
"^Mäßig langsam"!p! G>G FF |!<(! EE!<)!!>(! A2!>)! | G>B B/A/ c/A/ | G2 F z |!p! G>G FF | %5
w: 1.   Wie- der- um hat|stil- le Nacht|fried- lich uns * um- *|ge- ben,|wie- der- um ein|
w: 2.  Glück der Welt war|un- ser Ziel,|An- teil an * dem *|Lei- de|uns- rer Brü- der|
w: 3.  Welch' ein Tag! wie|schön voll- bracht!|wie auf Ze- * phyrs *|Flü- geln|eilt er in den|
!<(! EE!<)!!>(! A2!>)! | G>B B/A/ c/A/ |!>(! G2 F!>)! z | B>F FG | A/B/ c/A/!>(! GF!>)! | %10
w: Tag voll- bracht|von dem Er- * den- *|le- ben.|Freun- de, o wie|se- * lig * ist _|
w: war Ge- fühl,|uns- re rein- * ste *|Freu- de.|So ver- strich er|uns * da- * hin _|
w: Schoß der Nacht,|ro- sig sich * zu *|spie- geln.|Singt, in Got- tes|Hei- * lig- * tum _|
 G>"^cresc."G G=A | B/c/d/c/ B z |!p! EE AA |!<(! G>G!<)! c2 |!f! B e/B/ d/c/ B/A/ | %15
w: er auch uns ver-|flos- * * * sen,|ja er floss, von|Lust ver- süßt,|uns nicht * un- * ge- *|
w: un- ter stil- len|Scher- * * * zen;|E- wig- keit ist|sein Ge- winn,|und die * Ruh' * im *|
w: schallt es fro- her|wie- * * * der,|drei- fach die- sem|Ta- ge Ruhm,|drei- fach * Freu- * den- *|
!>(! GF!>)! E z |] %16
w: nos- * sen.|
w: Her- * zen.|
w: lie- * der.|
V:2
 E>E DD | EE D2 | E>G G/F/ A/F/ | E2 D x | E>E DD | EE D2 | E>G G/F/ A/F/ | E2 D x | F>D D=E | %9
 F/G/ A/F/ ED | E>E E/F/E | F2 F x | EE EE | E>E E2 | EB B/A/ G/F/ | ED E x |] %16
V:3
!p! B,>B, B,B, |!<(! B,B,!<)!!>(! B,2!>)! | B,>B, CC | B,2 B, z |!p! B,>B, B,B, | %5
!<(! B,B,!<)!!>(! B,2!>)! | B,>B, CC |!>(! B,2 B,!>)! z | D>B, B,B, | CC!>(! B,2!>)! | %10
 B,>"^cresc."B, CE | D/E/F/E/ D z |!p! G,G, CC |!<(! B,>B,!<)! A,2 |!f! G,G, A, B,/C/ | %15
!>(! B,A,!>)! G, z |] %16
V:4
 E,>E, A,A, | G,G, F,2 | E,>E, A,A, | B,2 B,, x | E,>E, A,A, | G,G, F,2 | E,>E, A,A, | B,2 B,, x | %8
 B,>B, A,G, | F,F, B,2 | E,>E, E,/D,/F, | B,,2 B,, x | E,E, E,E, | E,>E, E,2 | E,E, A,A,, | %15
 B,,2 E, x |] %16

